svg/black/mona.svg

<svg xmlns="http://www.w3.org/2000/svg" width="32" height="32" viewBox="0 0 32 32">
  <path d="M16,32 C7.163444,32 0,24.836556 0,16 C0,7.163444 7.163444,0 16,0 C24.836556,0 32,7.163444 32,16 C32,24.836556 24.836556,32 16,32 Z M23.529471,13.4135726 L22.1057935,7 L19.3088161,11.4136848 C17.1345088,10.8887269 14.8664987,10.8887269 12.6921914,11.4136848 L9.90125945,7 L8.47254408,13.4135726 C6.93602015,14.6421761 6,16.247336 6,18.0089736 C6,21.868424 10.4755668,24.9979809 15.9969773,24.9979809 C21.5183879,24.9979809 25.9939547,21.868424 25.9939547,18.0089736 C25.9929471,16.247336 25.0639798,14.6421761 23.529471,13.4135726 Z M10.4433249,16.351318 L9.77732997,16.351318 L11.4035264,14.4745934 L12.5884131,14.4745934 L10.4433249,16.351318 Z M15.9465995,20.9346046 L13.1808564,16.0625911 L13.8639798,15.6729108 L14.4806045,16.7581604 L17.502267,16.7581604 L18.1460957,15.6678632 L18.8221662,16.0696579 L15.9465995,20.9346046 Z M21.5596977,16.351318 L19.413602,14.4745934 L20.6055416,14.4745934 L22.2307305,16.351318 L21.5596977,16.351318 Z M15.9596977,19.365788 L17.0347607,17.5466068 L14.9269521,17.5466068 L15.9596977,19.365788 Z"/>
</svg>

<svg xmlns="http://www.w3.org/2000/svg" width="32" height="32"><path d="M16 32C7.163 32 0 24.837 0 16S7.163 0 16 0s16 7.163 16 16-7.163 16-16 16zm7.53-18.586L22.105 7l-2.797 4.414a14.096 14.096 0 0 0-6.617 0L9.902 7l-1.43 6.414C6.937 14.642 6 16.247 6 18.009c0 3.86 4.476 6.989 9.997 6.989s9.997-3.13 9.997-6.989c-.001-1.762-.93-3.367-2.465-4.595zM10.442 16.35h-.666l1.627-1.876h1.184l-2.145 1.876zm5.504 4.584l-2.766-4.872.683-.39.617 1.085h3.021l.644-1.09.676.402-2.875 4.865zm5.613-4.584l-2.146-1.876h1.192l1.625 1.876h-.671zm-5.6 3.015l1.075-1.82h-2.108l1.033 1.82z"/></svg>
